X:510
T:Buy a Broom. RH.510
T:Lieber Augustine,aka. RH.510
T:I’m A Little Dutch Girl,aka. RH.510
R:Waltz
S:Rev.R.Harrison’s MS,c1815,Cumbria
N:marked in different hand “aka Lieber Augustine,
N:I’m A Little Dutch Girl”. It’s a polka. PJH.(?CGP)
O:England
A:Temple Sowerby,Cumbria
Z:vmp.Simon Wilson. Review PJH, 2008.
M:3/4
L:1/8
Q:3/4=60
K:D
.a2(abag)|”sic”(e2d2).d2|(e2A2)A2|(fedefg)|\
.a2(abag)|(f2d2).d2|(e2A2).A2|d4z2||!
(e2A2).A2|(f2d2).d2|(e2A2).A2|(fedefg)|\
.a2(abag)|(f2d2).d2|(e2A2).A2|d4z2|]

